src/images/Money_FindDeals-01.svg

<svg width="249" height="275" viewBox="0 0 249 275" fill="none" xmlns="http://www.w3.org/2000/svg">
<g clip-path="url(#clip0)">
<path d="M207.034 140.57L155.861 91.6916C152.814 88.7811 147.984 88.8919 145.074 91.939L49.1922 192.321C46.2817 195.368 46.3924 200.198 49.4396 203.108L100.612 251.987C103.659 254.897 108.489 254.787 111.4 251.74L207.281 151.357C210.192 148.31 210.081 143.481 207.034 140.57Z" fill="#C0D5D0"/>
<g style="mix-blend-mode:multiply">
<path d="M196.216 144.643L152.293 102.69C150.745 101.211 148.291 101.267 146.812 102.815L60.1316 193.565C58.6528 195.113 58.7091 197.567 60.2573 199.045L104.18 240.999C105.729 242.478 108.182 242.422 109.661 240.874L196.342 150.124C197.821 148.576 197.764 146.122 196.216 144.643Z" stroke="#C0D5D0" stroke-width="5" stroke-miterlimit="10"/>
</g>
<g style="mix-blend-mode:multiply">
<path d="M139.594 157.855C129.928 148.623 116.666 146.819 109.973 153.826C103.279 160.834 105.689 173.999 115.355 183.232C125.021 192.464 138.283 194.268 144.977 187.261C151.67 180.253 149.26 167.088 139.594 157.855Z" fill="#C0D5D0"/>
</g>
<path d="M135.457 179.89C134.22 180.942 132.704 181.613 131.093 181.82C129.483 182.027 127.846 181.761 126.384 181.055L128.039 175.751C129.526 176.252 131.377 176.19 132.528 174.981C133.521 173.942 133.601 173.003 132.785 172.238C130.443 169.994 123.664 177.498 117.997 172.096C115.195 169.42 114.966 165.777 117.279 162.548L115.844 161.174L118.23 158.678L119.694 160.075C120.876 159.275 122.249 158.802 123.672 158.704C125.096 158.606 126.521 158.887 127.801 159.517L126.022 164.655C124.904 164.264 123.436 163.88 122.167 165.215C121.984 165.366 121.834 165.552 121.727 165.763C121.62 165.974 121.557 166.206 121.544 166.442C121.531 166.678 121.566 166.915 121.649 167.137C121.732 167.359 121.859 167.561 122.024 167.731C124.417 170.02 131.193 162.414 136.589 167.571C139.359 170.213 139.843 173.903 137.7 177.307L139.689 179.212L137.303 181.709L135.457 179.89Z" fill="#C0D5D0"/>
<g style="mix-blend-mode:multiply" opacity="0.48">
<path d="M217.537 111.46L183.55 49.3909C181.526 45.6949 176.89 44.3394 173.194 46.3632L51.4359 113.034C47.7399 115.057 46.3844 119.694 48.4081 123.39L82.3953 185.46C84.4191 189.156 89.0559 190.511 92.7519 188.487L214.51 121.817C218.206 119.793 219.561 115.156 217.537 111.46Z" fill="#C0D5D0"/>
</g>
<path d="M217.12 104.622L183.133 42.5527C181.109 38.8567 176.472 37.5011 172.776 39.5249L51.0185 106.195C47.3225 108.219 45.9669 112.856 47.9907 116.552L81.9779 178.621C84.0017 182.317 88.6385 183.673 92.3344 181.649L214.092 114.979C217.788 112.955 219.144 108.318 217.12 104.622Z" fill="#C0D5D0"/>
<g style="mix-blend-mode:multiply">
<path d="M205.577 105.232L176.405 51.9557C175.377 50.0778 173.021 49.3891 171.143 50.4173L61.0693 110.69C59.1914 111.718 58.5026 114.074 59.5309 115.952L88.7031 169.228C89.7314 171.106 92.0873 171.795 93.9652 170.766L204.039 110.494C205.917 109.466 206.605 107.11 205.577 105.232Z" stroke="#C0D5D0" stroke-width="5" stroke-miterlimit="10"/>
</g>
<g style="mix-blend-mode:multiply">
<path d="M147.611 100.696C141.191 88.972 129.097 83.2404 120.597 87.8946C112.097 92.5487 110.411 105.826 116.831 117.551C123.251 129.275 135.346 135.007 143.846 130.352C152.345 125.698 154.031 112.421 147.611 100.696Z" fill="#C0D5D0"/>
</g>
<path d="M136.923 120.471C135.423 121.105 133.77 121.288 132.168 120.996C130.566 120.705 129.083 119.953 127.902 118.832L131.088 114.267C132.35 115.199 134.136 115.697 135.595 114.895C136.853 114.206 137.202 113.289 136.674 112.358C135.119 109.516 126.37 114.606 122.645 107.771C120.786 104.376 121.664 100.839 124.856 98.4571L123.9 96.7166L126.925 95.0537L127.895 96.8272C129.266 96.4194 130.72 96.3811 132.111 96.7162C133.501 97.0512 134.778 97.7477 135.813 98.7351L132.562 103.1C131.611 102.386 130.336 101.57 128.715 102.458C128.494 102.547 128.295 102.68 128.129 102.85C127.963 103.02 127.834 103.222 127.75 103.444C127.666 103.666 127.629 103.903 127.641 104.141C127.653 104.378 127.714 104.61 127.82 104.822C129.409 107.724 138.152 102.523 141.75 109.075C143.584 112.439 142.903 116.084 139.845 118.678L141.167 121.097L138.136 122.756L136.923 120.471Z" fill="#C0D5D0"/>
</g>
<defs>
<clipPath id="clip0">
<rect width="224.928" height="160.377" fill="white" transform="translate(0 197.715) rotate(-61.5236)"/>
</clipPath>
</defs>
</svg>

<svg width="249" height="275" viewBox="0 0 249 275" fill="none" xmlns="http://www.w3.org/2000/svg"><g clip-path="url(#clip0)"><path d="M207.034 140.57l-51.173-48.878a7.63 7.63 0 0 0-10.787.247L49.192 192.321a7.63 7.63 0 0 0 .248 10.787l51.172 48.879a7.631 7.631 0 0 0 10.788-.247l95.881-100.383a7.63 7.63 0 0 0-.247-10.787z" fill="#C0D5D0"/><path d="M196.216 144.643l-43.923-41.953a3.877 3.877 0 0 0-5.481.125l-86.68 90.75a3.876 3.876 0 0 0 .125 5.48l43.923 41.954a3.877 3.877 0 0 0 5.481-.125l86.681-90.75a3.877 3.877 0 0 0-.126-5.481z" stroke="#C0D5D0" stroke-width="5" stroke-miterlimit="10"/><path d="M139.594 157.855c-9.666-9.232-22.928-11.036-29.621-4.029-6.694 7.008-4.284 20.173 5.382 29.406 9.666 9.232 22.928 11.036 29.622 4.029 6.693-7.008 4.283-20.173-5.383-29.406z" fill="#C0D5D0"/><path d="M135.457 179.89a8.376 8.376 0 0 1-9.073 1.165l1.655-5.304c1.487.501 3.338.439 4.489-.77.993-1.039 1.073-1.978.257-2.743-2.342-2.244-9.121 5.26-14.788-.142-2.802-2.676-3.031-6.319-.718-9.548l-1.435-1.374 2.386-2.496 1.464 1.397a8.09 8.09 0 0 1 8.107-.558l-1.779 5.138c-1.118-.391-2.586-.775-3.855.56a1.718 1.718 0 0 0-.518 1.922c.083.222.21.424.375.594 2.393 2.289 9.169-5.317 14.565-.16 2.77 2.642 3.254 6.332 1.111 9.736l1.989 1.905-2.386 2.497-1.846-1.819z" fill="#C0D5D0"/><path d="M217.537 111.46L183.55 49.39a7.63 7.63 0 0 0-10.356-3.027L51.436 113.034a7.629 7.629 0 0 0-3.028 10.356l33.987 62.07a7.63 7.63 0 0 0 10.357 3.027l121.758-66.67a7.63 7.63 0 0 0 3.027-10.357z" fill="#C0D5D0" opacity=".48"/><path d="M217.12 104.622l-33.987-62.07a7.63 7.63 0 0 0-10.357-3.027l-121.758 66.67a7.63 7.63 0 0 0-3.027 10.357l33.987 62.069a7.63 7.63 0 0 0 10.356 3.028l121.758-66.67a7.63 7.63 0 0 0 3.028-10.357z" fill="#C0D5D0"/><path d="M205.577 105.232l-29.172-53.276a3.876 3.876 0 0 0-5.262-1.539L61.069 110.69a3.876 3.876 0 0 0-1.538 5.262l29.172 53.276a3.876 3.876 0 0 0 5.262 1.538l110.074-60.272a3.876 3.876 0 0 0 1.538-5.262z" stroke="#C0D5D0" stroke-width="5" stroke-miterlimit="10"/><path d="M147.611 100.696c-6.42-11.724-18.514-17.456-27.014-12.801-8.5 4.654-10.186 17.931-3.766 29.656 6.42 11.724 18.515 17.456 27.015 12.801 8.499-4.654 10.185-17.931 3.765-29.656z" fill="#C0D5D0"/><path d="M136.923 120.471a8.37 8.37 0 0 1-9.021-1.639l3.186-4.565c1.262.932 3.048 1.43 4.507.628 1.258-.689 1.607-1.606 1.079-2.537-1.555-2.842-10.304 2.248-14.029-4.587-1.859-3.395-.981-6.932 2.211-9.314l-.956-1.74 3.025-1.663.97 1.773a8.117 8.117 0 0 1 7.918 1.908l-3.251 4.365c-.951-.714-2.226-1.53-3.847-.642a1.71 1.71 0 0 0-.965.986 1.723 1.723 0 0 0 .07 1.378c1.589 2.902 10.332-2.299 13.93 4.253 1.834 3.364 1.153 7.009-1.905 9.603l1.322 2.419-3.031 1.659-1.213-2.285z" fill="#C0D5D0"/></g><defs><clipPath id="clip0"><path fill="#fff" transform="rotate(-61.524 166.087 98.858)" d="M0 0h224.928v160.377H0z"/></clipPath></defs></svg>
